X:58
T:Shenandoah (b)
M:3/4
L:1/8
K:F
C2|\
FF F3F/G/|AB d2 c2|fe d3 c|dcA c2c|
dd d3A  |cA G2 F>G|A3 FAd |c4 FG|
A3 GG2|F4||
